X: 33
T: The Bride's Favourite
B: begged borrowed and stolen
M:6/8
L:1/8
R: jig
Q: 3/8=100
K:Gmajor
V:1 
|:"G"G3 BAB|GBd gdB|"D"AFA cBA|"G"GBd gdB|
"G" G3 BAB|GBd gdB|"C"AFA "D"cBA|1 "G"GFA G2 D:|2 "G"GFA GBd||
|: "G"g2 a "D"f2 a|"G"gdB GBd|"C"gfe fed|"D"egf e2 f | 
 "G"g2a "D"f2a|"G"gdB GBd|"C"AFA cBA|1 "D"GFA "G"GBd:|2 "D"GFA "G"G2 D||
|:"G"GBd gfg|"C"edc BcA|"G"GBd g2 g|"D"eaf "G"g2 a|
 "G"bgb "D"afa|"C"geg "D"fdf|"C"ed^c "D"def|"G"gaf gdB:|
% abcbook-tune_id 62828a3a278202ebe6a62283


% abcbook-boost 0
% abcbook-tablature 
% abcbook-transpose 
% abcbook-lastupdated 1652725431064
% abcbook-soundfonts 
% abcbook-repeats 3
% abc-sessionorg_id 3746
% abc-sessionorg_setting 0
% abc-sessionorg_setting_id 3746
% abc-boost 0

